assets/image/ibm-logo.svg

<?xml version="1.0" encoding="UTF-8"?>
<svg width="108px" height="43px" viewBox="0 0 108 43" version="1.1" xmlns="http://www.w3.org/2000/svg" xmlns:xlink="http://www.w3.org/1999/xlink">
    <!-- Generator: Sketch 46 (44423) - http://www.bohemiancoding.com/sketch -->
    <title>ibm-logo</title>
    <desc>Created with Sketch.</desc>
    <defs>
        <polygon id="path-1" points="53.555 42.8442 107.11 42.8442 107.11 0.0002 0 0.0002 0 21.4222 0 42.8442"></polygon>
    </defs>
    <g id="Page-1" stroke="none" stroke-width="1" fill="none" fill-rule="evenodd">
        <g id="ibm-logo">
            <mask id="mask-2" fill="white">
                <use xlink:href="#path-1"></use>
            </mask>
            <g id="Clip-2"></g>
            <path d="M92.09,42.8442 L107.111,42.8442 L107.111,39.9132 L92.09,39.9132 L92.09,42.8442 Z M82.17,39.9132 L83.216,42.8362 L83.396,42.8402 L84.458,39.9132 L82.17,39.9132 Z M59.505,42.8442 L74.362,42.8442 L74.362,39.9132 L59.505,39.9132 L59.505,42.8442 Z M23.803,39.9132 L23.803,42.8402 L46.459,42.8402 C50.479,42.8402 53.513,39.9132 53.513,39.9132 L23.803,39.9132 Z M0.163,42.8442 L21.012,42.8442 L21.012,39.9132 L0.163,39.9132 L0.163,42.8442 Z M92.09,37.1432 L107.111,37.1432 L107.111,34.2072 L92.09,34.2072 L92.09,37.1432 Z M80.107,34.2082 L81.195,37.1432 L85.425,37.1432 L86.446,34.2082 L80.107,34.2082 Z M59.505,37.1432 L74.362,37.1432 L74.362,34.2072 L59.505,34.2072 L59.505,37.1432 Z M23.803,34.2082 L23.803,37.1432 L55.898,37.1432 C56.574,36.4712 56.961,34.2082 56.961,34.2082 L23.803,34.2082 Z M0.163,37.1432 L21.012,37.1432 L21.012,34.2072 L0.163,34.2072 L0.163,37.1432 Z M92.09,31.4392 L101.119,31.4392 L101.119,28.5082 L92.09,28.5082 L92.09,31.4392 Z M78.053,28.5072 L79.111,31.4392 L87.425,31.4392 L88.492,28.5072 L78.053,28.5072 Z M65.333,31.4392 L74.362,31.4392 L74.362,28.5082 L65.333,28.5082 L65.333,31.4392 Z M47.606,28.5072 L47.606,31.4392 L57.208,31.4392 C57.208,30.0552 56.635,28.5072 56.635,28.5072 L47.606,28.5072 Z M29.794,31.4392 L38.823,31.4392 L38.823,28.5082 L29.794,28.5082 L29.794,31.4392 Z M5.991,31.4392 L15.02,31.4392 L15.02,28.5082 L5.991,28.5082 L5.991,31.4392 Z M92.09,25.7382 L101.119,25.7382 L101.119,22.8072 L92.09,22.8072 L92.09,25.7382 Z M76.002,22.8072 L77.094,25.7382 L89.496,25.7382 L90.533,22.8072 L76.002,22.8072 Z M65.333,25.7382 L74.362,25.7382 L74.362,22.8072 L65.333,22.8072 L65.333,25.7382 Z M29.794,22.8072 L29.794,25.7382 L55.4,25.7382 C54.786,24.3152 52.856,22.8072 52.856,22.8072 L29.794,22.8072 Z M5.991,25.7382 L15.02,25.7382 L15.02,22.8072 L5.991,22.8072 L5.991,25.7382 Z M65.333,17.1062 L65.333,20.0372 L74.362,20.0372 L74.362,18.4052 L74.935,20.0372 L91.475,20.0372 L92.09,18.4052 L92.09,20.0372 L101.119,20.0372 L101.119,17.1062 L84.17,17.1062 L83.27,19.5892 L82.366,17.1062 L65.333,17.1062 Z M29.794,17.1062 L29.794,20.0372 L52.856,20.0372 C52.856,20.0372 54.786,18.5332 55.4,17.1062 L29.794,17.1062 Z M5.991,20.0372 L15.02,20.0372 L15.02,17.1062 L5.991,17.1062 L5.991,20.0372 Z M86.103,11.4012 L85.032,14.3372 L101.119,14.3372 L101.119,11.4012 L86.103,11.4012 Z M65.333,11.4012 L65.333,14.3372 L81.341,14.3372 L80.274,11.4012 L65.333,11.4012 Z M47.606,11.4012 L47.606,14.3372 L56.635,14.3372 C56.635,14.3372 57.208,12.7862 57.208,11.4012 L47.606,11.4012 Z M29.794,14.3372 L38.823,14.3372 L38.823,11.4022 L29.794,11.4022 L29.794,14.3372 Z M5.991,14.3372 L15.02,14.3372 L15.02,11.4022 L5.991,11.4022 L5.991,14.3372 Z M88.069,5.7052 L87.082,8.6322 L106.947,8.6322 L106.947,5.7052 L88.069,5.7052 Z M59.342,5.7052 L59.342,8.6322 L79.287,8.6322 L78.299,5.7052 L59.342,5.7052 Z M23.803,5.7052 L23.803,8.6322 L56.961,8.6322 C56.961,8.6322 56.574,6.3762 55.898,5.7052 L23.803,5.7052 Z M0,8.6322 L20.849,8.6322 L20.849,5.7012 L0,5.7012 L0,8.6322 Z M90.203,0.0002 L89.136,2.9312 L106.947,2.9312 L106.947,0.0002 L90.203,0.0002 Z M59.342,0.0002 L59.342,2.9312 L77.316,2.9312 L76.249,0.0002 L59.342,0.0002 Z M23.803,0.0002 L23.803,2.9312 L53.513,2.9312 C53.513,2.9312 50.479,0.0002 46.459,0.0002 L23.803,0.0002 Z M0,2.9312 L20.849,2.9312 L20.849,0.0002 L0,0.0002 L0,2.9312 Z" id="Fill-1" fill="#2970B7" mask="url(#mask-2)"></path>
        </g>
    </g>
</svg>

<svg width="108" height="43" xmlns="http://www.w3.org/2000/svg" xmlns:xlink="http://www.w3.org/1999/xlink"><defs><path id="a" d="M53.555 42.844h53.555V0H0v42.844z"/></defs><g fill="none" fill-rule="evenodd"><mask id="b" fill="#fff"><use xlink:href="#a"/></mask><path d="M92.09 42.844h15.021v-2.93H92.09v2.93zm-9.92-2.93l1.046 2.922.18.004 1.062-2.927H82.17zm-22.665 2.93h14.857v-2.93H59.505v2.93zm-35.702-2.93v2.926h22.656c4.02 0 7.054-2.927 7.054-2.927h-29.71zm-23.64 2.93h20.849v-2.93H.163v2.93zm91.927-5.7h15.021v-2.937H92.09v2.936zm-11.983-2.936l1.088 2.935h4.23l1.021-2.935h-6.339zm-20.602 2.935h14.857v-2.936H59.505v2.936zm-35.702-2.935v2.935h32.095c.676-.672 1.063-2.935 1.063-2.935H23.803zM.163 37.143h20.849v-2.936H.163v2.936zM92.09 31.44h9.029v-2.93H92.09v2.93zm-14.037-2.932l1.058 2.932h8.314l1.067-2.932H78.053zm-12.72 2.932h9.029v-2.93h-9.029v2.93zm-17.727-2.932v2.932h9.602c0-1.384-.573-2.932-.573-2.932h-9.029zM29.794 31.44h9.029v-2.93h-9.029v2.93zm-23.803 0h9.029v-2.93H5.991v2.93zm86.099-5.7h9.029v-2.932H92.09v2.931zm-16.088-2.932l1.092 2.931h12.402l1.037-2.93H76.002zm-10.669 2.931h9.029v-2.93h-9.029v2.93zm-35.539-2.93v2.93H55.4c-.614-1.423-2.544-2.93-2.544-2.93H29.794zm-23.803 2.93h9.029v-2.93H5.991v2.93zm59.342-8.632v2.931h9.029v-1.632l.573 1.632h16.54l.615-1.632v1.632h9.029v-2.93H84.17l-.9 2.482-.904-2.483H65.333zm-35.539 0v2.931h23.062s1.93-1.504 2.544-2.93H29.794zm-23.803 2.93h9.029v-2.93H5.991v2.93zm80.112-8.636l-1.071 2.936h16.087v-2.936H86.103zm-20.77 0v2.936h16.008l-1.067-2.936H65.333zm-17.727 0v2.936h9.029s.573-1.55.573-2.936h-9.602zm-17.812 2.936h9.029v-2.935h-9.029v2.935zm-23.803 0h9.029v-2.935H5.991v2.935zm82.078-8.632l-.987 2.927h19.865V5.705H88.069zm-28.727 0v2.927h19.945l-.988-2.927H59.342zm-35.539 0v2.927h33.158s-.387-2.256-1.063-2.927H23.803zM0 8.632h20.849v-2.93H0v2.93zM90.203 0l-1.067 2.931h17.811V.001H90.203zM59.342 0v2.931h17.974L76.249.001H59.342zM23.803 0v2.931h29.71S50.479.001 46.459.001H23.803zM0 2.931h20.849V.001H0v2.93z" fill="#2970B7" mask="url(#b)"/></g></svg>
